X:38
T:Miss Rutherfoord's Jigg
C:Robert Petrie
S:Petrie's Collection of Strathspey Reels and Country Dances &c., 1790
Z:Steve Wyrick , 6/4/04
N:Petrie's First Collection, page 17
L:1/8
V:1 name = "violin"
V:2 name = "bass" clef=bass middle=d transpose=-24
M:6/8
R:Jig
K:A
[V:1] "^Slow"E|EAA A2 c/d/|e>fe ecA|B,BB B2 B/c/|d>ed BGE|
[V:2]        z|Aae c2 A   |c3   a3 |g3   gfe    |b2B  e2d|
[V:1] EAA A2 c/d/|e>fe ecA|Fdc BGE|AAA A2:|
[V:2] cae c2 A   |c3   A3 |d3  e2E|Ace A2:|
[V:1] c/d/|e>fg Ta2g |fed cBA|dfe/d/ ced/c/|dFB {A}GFE|
[V:2]    z|a2b  c'ae'|g3  a2c|B2g    a2e   |d2^d  e2=d|
[V:1] e>fg Ta2g|fed cBA|Fdc BGE|AAA          A2 f/g/|
[V:2] c2B   Ace|g3  a2c|d3  e2E|A/c/e/a/c/e/ A2z    |
[V:1] a>ba/4g/4f/ e>fe/d/|cea {f}e{d}c{B}A|d/e/f/e/c/B/ c/d/e/c/B/A/|B/F/d/c/B/A/ {A}GFE          |
[V:2] a3          g3     |a3     c3       |B2e          a2c         |d2^d            e/f/e/=d/c/B/|
[V:1] CEA Ace|d/c/d/e/f/g/ a2      g/f/|ecA B,fe/d/|cAA A2|]
[V:2] A3  c3 |d2B          c/B/c/d/e/d/|c3  d2e    |aec A2|]
% The above code was written using Phil Taylor's BarFly abc reader/converter/player program.
% Other abc converters (e.g. abc2ps) may require everything after the word "bass" to be
% deleted in the V:2 header line for correct display of notes the bass clef, or require that
% the M: and K: fields be repeated directly under the V:1 header line to display the meter
% and key signature on both staffs.  Some abc MIDI players (e.g. abc2midi) will not play
% multiple-voiced abc code.  -SW
